svgs/solid/garage.svg

<svg xmlns="http://www.w3.org/2000/svg" viewBox="0 0 640 512"><!--! Font Awesome Pro 6.0.0-alpha3 by @fontawesome - https://fontawesome.com License - https://fontawesome.com/license (Commercial License) --><path d="M128 512h384l-.0001-160H128.1L128 512zM272 416h96c8.875 0 16 7.125 16 16s-7.125 16-16 16h-96c-8.875 0-16-7.125-16-16S263.1 416 272 416zM128 320h383.5l.5-96h-384V320zM610.5 117l-272-113.3C332.6 1.542 326.3 .25 320 0c-6.375 .25-12.67 1.417-18.54 3.667L29.5 117c-17.88 7.5-29.5 24.88-29.5 44.25L.0001 496c0 8.875 7.125 16 16 16h64c8.875 0 15.1-7.125 15.1-16V224c0-17.62 14.63-32 32.63-32h382.8c18 0 32.62 14.38 32.62 32v272c0 8.875 7.125 16 16 16h63.1c8.875 0 16-7.125 16-16L640 161.2C640 141.9 628.4 124.5 610.5 117z"/></svg>

<svg xmlns="http://www.w3.org/2000/svg" viewBox="0 0 640 512"><path d="M128,512H512V352H128.11Zm144-96h96a16,16,0,0,1,0,32H272a16,16,0,0,1,0-32ZM128,320H511.47l.53-96H128S128,320,128,320ZM610.5,117,338.41,3.67A57.4,57.4,0,0,0,320,0,57.4,57.4,0,0,0,301.5,3.67L29.5,117A48.11,48.11,0,0,0,0,161.28V496a16,16,0,0,0,16,16H80a16,16,0,0,0,16-16V224c0-17.59,14.59-32,32.59-32H511.41c18,0,32.59,14.41,32.59,32V496a16,16,0,0,0,16,16h64a16,16,0,0,0,16-16V161.28A48.11,48.11,0,0,0,610.5,117Z"/></svg>
